azure-patterns/svg-resource-graph-dark.svg

<svg xmlns="http://www.w3.org/2000/svg" viewBox="0 0 113 111">
                                
                            
    <path d="M19.5664 17.7319L12.3862 23.5996L63.3308 86.2953L70.5109 80.4276L19.5664 17.7319Z" fill="#1A1A1F"></path>
    <path d="M92.391 16.0231H15.9771V25.3118H92.391V16.0231Z" fill="#1A1A1F"></path>
    <path d="M15.9775 36.6904C24.8016 36.6904 31.9549 29.5166 31.9549 20.6674C31.9549 11.8181 24.8016 4.64435 15.9775 4.64435C7.15335 4.64435 0 11.8181 0 20.6674C0 29.5166 7.15335 36.6904 15.9775 36.6904Z" fill="#1A1A1F"></path>
    <path opacity="0.2" d="M15.9775 36.6904C24.8016 36.6904 31.9549 29.5166 31.9549 20.6674C31.9549 11.8181 24.8016 4.64435 15.9775 4.64435C7.15335 4.64435 0 11.8181 0 20.6674C0 29.5166 7.15335 36.6904 15.9775 36.6904Z" fill="#1A1A1F"></path>
    <path d="M92.3913 41.3347C103.773 41.3347 113 32.0816 113 20.6674C113 9.25309 103.773 0 92.3913 0C81.0095 0 71.7827 9.25309 71.7827 20.6674C71.7827 32.0816 81.0095 41.3347 92.3913 41.3347Z" fill="#1A1A1F"></path>
    <path opacity="0.1" d="M92.3913 41.3347C103.773 41.3347 113 32.0816 113 20.6674C113 9.25309 103.773 0 92.3913 0C81.0095 0 71.7827 9.25309 71.7827 20.6674C71.7827 32.0816 81.0095 41.3347 92.3913 41.3347Z" fill="#1A1A1F"></path>
    <path d="M66.9201 111C82.1385 111 94.4754 98.6279 94.4754 83.3661C94.4754 68.1043 82.1385 55.7322 66.9201 55.7322C51.7017 55.7322 39.3647 68.1043 39.3647 83.3661C39.3647 98.6279 51.7017 111 66.9201 111Z" fill="#1A1A1F"></path>
</svg>

<svg xmlns="http://www.w3.org/2000/svg" viewBox="0 0 113 111"><path d="M19.566 17.732l-7.18 5.868 50.945 62.695 7.18-5.867-50.945-62.696z" fill="#1A1A1F"/><path d="M92.391 16.023H15.977v9.289h76.414v-9.289z" fill="#1A1A1F"/><path d="M15.977 36.69c8.825 0 15.978-7.173 15.978-16.023 0-8.849-7.153-16.023-15.977-16.023C7.152 4.644 0 11.818 0 20.667c0 8.85 7.153 16.023 15.977 16.023z" fill="#1A1A1F"/><path opacity=".2" d="M15.977 36.69c8.825 0 15.978-7.173 15.978-16.023 0-8.849-7.153-16.023-15.977-16.023C7.152 4.644 0 11.818 0 20.667c0 8.85 7.153 16.023 15.977 16.023z" fill="#1A1A1F"/><path d="M92.391 41.335c11.382 0 20.609-9.253 20.609-20.668C113 9.253 103.773 0 92.391 0 81.01 0 71.783 9.253 71.783 20.667c0 11.415 9.227 20.668 20.608 20.668z" fill="#1A1A1F"/><path opacity=".1" d="M92.391 41.335c11.382 0 20.609-9.253 20.609-20.668C113 9.253 103.773 0 92.391 0 81.01 0 71.783 9.253 71.783 20.667c0 11.415 9.227 20.668 20.608 20.668z" fill="#1A1A1F"/><path d="M66.92 111c15.218 0 27.555-12.372 27.555-27.634S82.138 55.732 66.92 55.732 39.365 68.104 39.365 83.366 51.702 111 66.92 111z" fill="#1A1A1F"/></svg>
